X:273
T:Devanny's Goat
R:reel
C:Tommy Whelan
D:Frankie Gavin: Croch suas E
D:Shaskeen: 25th Silver Jubilee Collection
Z:id:hn-reel-273
M:C|
K:D
DFAB AFAB|defe dBAF|DFAF BFAF|E2DF EFGB|
A2AB AFAB|defe dBAf|efdB AF~F2|AFEA FD~D2:|
|:faa^g afdf|a2fd edBd|ABde fd~d2|e2fd edBd|
ABde fd~d2|gefd edBd|A2dB AF~F2|AFEA FD~D2:|
